X:1
T:Dusty Windowsills
L:1/8
Q:1/4=160
M:6/8
K:G
"Am"A z A z z A |"C" c z c z z c |"G" G z G z z G |"Em" E z E z z E |
"Am" A z A z z A |"C" c z c z z c |"G" G z G z z G |"Em"E z E"Am" z z A ::
"Am" z6 |"C" z6 |"G" z6 |"Em" z6 |
"F" z6 |"Em" z6 |"G" z6 |"Em" z6"Am" ::
"Am" z3 [Gd] z [Ae] |"C" z3 [Gd] z [Ae] |"G"z3 [DA] z [EG] |"Em" z3 [EB][Fc][Gd] |
"Am" z3 [Gd] z [Ae] |"C" z3 [Ae]3 |"G" .[Gd]2 z .[EB]2 z |"Em".[Ae]2 z z3 ::
